assets/misc-grey/MiscGrey5.svg

<svg width="33" height="40" viewBox="0 0 33 40" fill="none" xmlns="http://www.w3.org/2000/svg">
<path fill-rule="evenodd" clip-rule="evenodd" d="M8.99799 12H17.956C18.785 12 19.456 11.33 19.456 10.5C19.456 9.67004 18.785 9.00004 17.956 9.00004H8.99799C8.16899 9.00004 7.49799 9.67004 7.49799 10.5C7.49799 11.33 8.16899 12 8.99799 12ZM8.99799 18.29H23.88C24.708 18.29 25.38 17.61 25.38 16.79C25.38 15.96 24.708 15.29 23.88 15.29H8.99799C8.16899 15.29 7.49799 15.96 7.49799 16.79C7.49799 17.61 8.16899 18.29 8.99799 18.29ZM23.952 24.57H9.06999C8.24199 24.57 7.56999 23.9 7.56999 23.07C7.56999 22.24 8.24199 21.57 9.06999 21.57H23.952C24.781 21.57 25.452 22.24 25.452 23.07C25.452 23.9 24.781 24.57 23.952 24.57ZM8.99799 30.86H23.88C24.708 30.86 25.38 30.18 25.38 29.36C25.38 28.53 24.708 27.86 23.88 27.86H8.99799C8.16899 27.86 7.49799 28.53 7.49799 29.36C7.49799 30.18 8.16899 30.86 8.99799 30.86ZM4.06299 3.04004C3.79199 3.04004 3.56299 3.27004 3.56299 3.54004V36.1C3.56299 36.37 3.79199 36.6 4.06299 36.6H28.96C29.231 36.6 29.46 36.37 29.46 36.1V3.54004C29.46 3.27004 29.231 3.04004 28.96 3.04004H4.06299ZM28.96 39.6H4.06299C2.13299 39.6 0.562988 38.03 0.562988 36.1V3.54004C0.562988 1.61004 2.13299 0.0400391 4.06299 0.0400391H28.96C30.89 0.0400391 32.46 1.61004 32.46 3.54004V36.1C32.46 38.03 30.89 39.6 28.96 39.6Z" fill="#1A1919"/>
</svg>

<svg xmlns="http://www.w3.org/2000/svg" viewBox="0 0 33 40"><path fill-rule="evenodd" d="M8.998 12h8.958c.829 0 1.5-.67 1.5-1.5s-.671-1.5-1.5-1.5H8.998c-.829 0-1.5.67-1.5 1.5s.671 1.5 1.5 1.5zm0 6.29H23.88a1.5 1.5 0 100-3H8.998c-.829 0-1.5.67-1.5 1.5 0 .82.671 1.5 1.5 1.5zm14.954 6.28H9.07a1.5 1.5 0 110-3h14.882c.829 0 1.5.67 1.5 1.5s-.671 1.5-1.5 1.5zM8.998 30.86H23.88a1.5 1.5 0 100-3H8.998c-.829 0-1.5.67-1.5 1.5 0 .82.671 1.5 1.5 1.5zM4.063 3.04c-.271 0-.5.23-.5.5V36.1c0 .27.229.5.5.5H28.96c.271 0 .5-.23.5-.5V3.54c0-.27-.229-.5-.5-.5H4.063zM28.96 39.6H4.063c-1.93 0-3.5-1.57-3.5-3.5V3.54c0-1.93 1.57-3.5 3.5-3.5H28.96c1.93 0 3.5 1.57 3.5 3.5V36.1c0 1.93-1.57 3.5-3.5 3.5z" clip-rule="evenodd"/></svg>
